packages/design-assets/icons/12px/Sort-Descending.svg

<svg width="12" height="12" xmlns="http://www.w3.org/2000/svg"><path d="M2 8V0h2v12L0 8h2zm5-7v3h3V1H7zM6 0h5v5H6V0zm0 7h5v5H6V7z" fill="#818F99" fill-rule="evenodd"/></svg>

<?xml version="1.0" encoding="UTF-8"?>
<svg width="12px" height="12px" viewBox="0 0 12 12" version="1.1" xmlns="http://www.w3.org/2000/svg" xmlns:xlink="http://www.w3.org/1999/xlink">
    <!-- Generator: Sketch 54.1 (76490) - https://sketchapp.com -->
    <title>Icons/12px/Sort-Descending</title>
    <desc>Created with Sketch.</desc>
    <g id="Icons/12px/Sort-Descending" stroke="none" stroke-width="1" fill="none" fill-rule="evenodd">
        <path d="M2,8 L2,0 L4,0 L4,12 L0,8 L2,8 Z M7,1 L7,4 L10,4 L10,1 L7,1 Z M6,0 L11,0 L11,5 L6,5 L6,0 Z M6,7 L11,7 L11,12 L6,12 L6,7 Z" id="i-12-sort-descending" fill="#818F99"></path>
    </g>
</svg>
